X:1
T:Herbstlied
T:Robert Schumann (1810-1856)
T:Herbstlied
T:Copyright © 2014 by the Choral Public Domain Library (http://www.cpdl.org)
T:Copyright © 2014 by the Choral Public Domain Library (http://www.cpdl.org)
T:Copyright © 2014 by the Choral Public Domain Library (http://www.cpdl.org)
T:Copyright © 2014 by the Choral Public Domain Library (http://www.cpdl.org)
T:Copyright © 2014 by the Choral Public Domain Library (http://www.cpdl.org)
T:Copyright © 2014 by the Choral Public Domain Library (http://www.cpdl.org)
T:Copyright © 2014 by the Choral Public Domain Library (http://www.cpdl.org)
T:Copyright © 2014 by the Choral Public Domain Library (http://www.cpdl.org)
C:Robert Schumann
Z:Copyright © 2014 by the Choral Public Domain Library (http://www.cpdl.org)
%%score 1 2 { ( 3 4 6 ) | ( 5 7 ) }
L:1/8
Q:1/8=120
M:2/4
K:C
V:1 treble nm="Part_1"
V:2 treble nm="Part_2"
V:3 treble nm="Part_3"
V:4 treble 
V:6 treble 
V:5 bass 
V:7 bass 
V:1
"^Op. 43, No. 2" z/ | z4 | z2 z3/2 E/ | .c.c .B.^G | A2 E z/ E/ | E>G GF | E2 z z/ E/ | cc/c/ _BG | %8
w: ||Das|Laub fällt von den|Bäu- men, das|zar- te Som- mer-|laub. Das|Le- ben mit sei- nen|
 A2 F z/ F/ | EA B>c | A/e/e- e/e/d- | d/d/c/B/ .A.^G | .A z z2 | z2 z z/ E/ | cc/c/ B^G | %15
w: Träu- men zer-|fällt in Asch' und|Staub, ja, ja, _ ja, ja,|_ zer- fällt in Asch' und|Staub.|Die|Vög- lein im Wal- de|
 A2 E z/ E/ | E>G GF | E z z3/2 E/ | c>c _BG | A2 F z/ F/ | EA B>c | A/e/e- e/e/d- | %22
w: san- gen, wie|schweigt der Wald jetzt|still! Die|Lieb' ist fort- ge-|gan- gen, kein|Vög- lein sin- gen|will, ja, ja, * ja, ja,|
 d/d/c/B/ .A.^G | A z z2 | z2 !fermata!z z/ G/ || G>G A>A | d2 G z/ G/ | G>G A>A | d3 z/ G/ | %29
w: * kein Vög- lein sin- gen|will.|Die|Lie- be kehrt wohl|wie- der, Im|lie- ben künft'- gen|Jahr, und|
 G>G AA | !>!d2 GG x/8 | B>B c^F | G2 z3/2 G/ | G>G AA | !>!d2 G z/ G/ | G>G AA | !>!d3 z/ G/ | %37
w: al- les kehrt dann|wie- der, was|jetzt ver- klun- gen|war. Du|Win- ter sei will-|kom- men, dein|Kleid ist rein und|neu, er|
 G>G G>A | !>!d2 G !fermata!z | z/ A/e/>d/ cB | e4- | e/A/e/>d/ cB |"^treu!" c2 z2 | z4 | z4 | %45
w: hat den Schmuck ge-|nom- men,|den Schmuck be- wahrt er|treu,|* den Schmuck be- wahrt er||||
 z4 |] %46
w: |
V:2
 z/ | z4 | z2 z3/2 E/ | .A.A .A.E | E2 E z/ D/ | C>D ED | E2 z z/ E/ | AA/A/ GE | E2 D z/ D/ | %9
w: ||Das|Laub fällt von den|Bäu- men, das|zar- te Som- mer-|laub. Das|Le- ben mit sei- nen|Träu- men zer-|
 CA (A^G/)G/ | E z/ E/ F>D | E/E/E/D/ CB, | C z z2 | z2 z z/ E/ | AA/A/ AE | E2 E z/ D/ | C>D ED | %17
w: fällt in Asch * und|Staub, ja, ja, ja,|ja, zer- fällt in Asch und|Staub.|Die|Vög- lein im Wal- de|san- gen, wie|schweigt der Wald jetzt|
 E z z3/2 E/ | A>A GE | E2 D z/ D/ | CA (A^G/)G/ | E z/ E/ F>D | E/E/E/D/ .C.B, | C z z2 | %24
w: still! Die|Lieb' ist fort- ge-|gan- gen, kein|Vög- lein sin- * gen|will, ja, ja, ja,|ja kein Vög- lein sin- gen|will.|
 z2 !fermata!z z/ F/ || E>E F>F | F2 F z/ F/ | E>E F>F | F3 z/ F/ | E>E ^FF | !>!G2 GE x/8 | %31
w: Die|Lie- be kehrt wohl|wie- der, Im|lie- ben künft'- gen|Jahr, und|al- les kehrt dann|wie- der, was|
 D>D EC | B,2 z3/2 F/ | E>E FF | !>!F2 F z/ F/ | E>E FF | !>!F3 z/ F/ | E>E ^F>F | %38
w: jetzt ver- klun- gen|war. Du|Win- ter sei will-|kom- men dein|Kleid ist rein und|neu, er|hat den Schmuck ge-|
 !>!G2 G !fermata!z | z/ A/G/>F/ ED | (D2 ^C2 | C/)D/G/>F/ ED |"^treu!" E2 z2 | z4 | z4 | z4 |] %46
w: nom- men,|den Schmuck be- wahrt er|treu, *|* den Schmuck be- wahrt er|||||
V:3
 x/ | x4 | x4 | [Ac]([Ac]B^G | [EA]2 [B,E]>)E | x4 | x4 | [Ac]2 [G_B][EG] | [EGA]2 A>[FA] | %9
 (Acd^G) | [CA] z/ [Ee]/ [Fe]>([Fd-] | [Ed])[Ec]/[DB]/ [CEA][DE^G]/E/ | ([Ac]2 B^G | A2) E>E | %14
 [Ac][Ac]B^G | A2 [B,E]>E | E>G [EG][DF] | x4 | z/ C/F/E/ [G_B]G | [EGA]2 A>[FA] | (Acd^G) | %21
 [CA] z/ [Ee-]/ [Fe]>([Fd-] | [Ed])[Ec]/[DB]/ .[CEA].[DE^G]/E/ | [Ac]2 B^G | %24
 [EA]2 !fermata![G,DFG]>G || x4 | x4 | x4 | x4 | x4 | x33/8 | x4 | x4 | x4 | x4 | x4 | x4 | x4 | %38
 x4 | x4 | x4 | x11/3 (3:2:1G/ | x4 | c2 B^G- | G/A/[=Ge]/[Fd]/ cB | [DB]2 [Ec]2 |] %46
V:4
 E/- | E/C/F/E/ ^D/^F/E/=D/ | D/C/B,/A,/ A,/^G,/A,/B,/ | x4 | x4 | C/B,/C/B,/ C/E/B,/A,/ | %6
 ^G,/B,/G,/E,/ x2 | x4 | x4 | x4 | x4 | x4 | x4 | D/C/B,/A,/ B,/^G,/A,/B,/ | x4 | x4 | x4 | %17
 ^G,/B,/G,/E,/ x2 | x4 | z/ A,/A/>G/ x2 | x4 | x4 | x4 | x4 | x4 || [EG]2 [FA]2 | [FGd]2 G>G | %27
 [EG]2 [FA]2 | [FGd]3 z/ G/ | [EG]2 (3_E/^F/A/ (3_e/^f/a/ | (3g/d/B/ (3G/D/B,/ x17/8 | x4 | x4 | %33
 x4 | x4 | x4 | x4 | [EG]2 (3_E/^F/A/ (3_e/^f/a/ | (3(g/d/B/ (3G/D/B,/ G,) ([EG]/>[Fc]/) | %39
 [Fc]/A/[GAe]/>[Fd]/ [Ec]/G/[DB]/G/ | [^GBe]2 [=GA^ce]2 | e/([G-A]/[GAe]/)[FAd]/ x2 | [ce]2 dB | %43
 x4 | x4 | x4 |] %46
V:5
 z/ | ([A,,,A,,]2 [B,,,B,,][E,,E,] | [A,,,A,,]2 E,,^F,,/^G,,/) | (A,,2 B,,[E,,E,] | %4
 [A,,E,]2) E,>E, | [A,,E,]>[G,,G,] [C,G,]D, | E,>E, ^D,/=D,E,/ | ([A,,A,]2 _B,,C, | ^C,2 [D,A,]2) | %9
 (E,F,D,E,) | A,, z/ [C,A,-]/ [D,A,]>[B,,G,-] | [C,-G,]C,/D,/ .E,.E, | %12
 ([A,,,A,,]2 [B,,,B,,][E,,E,] | [A,,,A,,]2) E,2 | A,,2 B,,[E,,E,] | [A,,E,]2 E,>E, | %16
 [A,,E,]>[G,,G,] [C,G,]D, | z2 E,/E,E,/ | [A,,A,]2 _B,,C, | ^C,2 [D,A,]2 | (E,F,D,E,) | %21
 A,, z/ [C,A,-]/ [D,A,]>[B,,G,-] | [C,-G,]C,/D,/ .E,.E, | [A,,,A,,]2 [B,,,B,,][E,,E,] | %24
 [A,,,A,,]2{!fermata!B,,,} !fermata![B,,,B,,]3/2 z/ || %25
 (3(C,,/G,,/C,/ (3E,/G,/C/) (3(F,,/C,/F,/ (3A,/C/F/) | %26
 (3(B,,,/G,,/D,/ (3G,/B,/D/) (3(F/ D/B,/ (3A,/D,/G,,/) | %27
 (3(C,,/G,,/C,/ (3E,/G,/C/) (3(F,,/C,/F,/ (3A,/C/F/) | %28
 (3(B,,,/G,,/D,/ (3G,/B,/D/) (3(F/ D/B,/ (3A,/D,/G,,/) | x2 C2 | %30
 x/12 [G,B,] z (3B,,/G,/D/ (3C,/G,/E/ x/24 | (3(D,/G,/B,/(3D/ G/B/) (3D,/E/G/ (3D,/C/^F/ | %32
 (3(G,,/B,/!courtesy!=F/ (3E/B,/G,/ (3F,/D,/B,,/ (3G,,/F,,/D,,/) | %33
 (3(C,,/G,,/C,/ (3E,/G,/C/) (3(F,,/C,/F,/ (3A,/C/F/) | %34
 (3(B,,,/G,,/D,/ (3G,/B,/D/) (3(F/ D/B,/ (3A,/D,/G,,/) | %35
 (3(C,,/G,,/C,/ (3E,/G,/C/) (3(F,,/C,/F,/ (3A,/C/F/) | %36
 (3(B,,,/G,,/D,/ (3G,/B,/D/) (3(F/ D/B,/ (3A,/D,/G,,/) | (3C,,/C,/E,/ (3G,/C/C,/- [C,C]_E | %38
 [G,D]2 !fermata!G, ([_B,C]/>[A,C]/) | [A,C][F,^C]/D/ G,G,, | %40
 (3(E,,/E,/^G,/ (3B,/E/^G/) (3(A,,/E,/A,/ (3^C/E/) x/4 x/6 | %41
 (3(D,/F,/A,/ (3^C/E/D,/) (3G,,/G,/G/ (3G,,/G,/G/ | C,2 D,G, | [C,,C,]2 [D,,D,][E,,E,] | %44
 [F,,F,]^C/D/ G,G,, | (C,/G,/G,- [C,G,]2) |] %46
V:6
 x/ | [Ac]2 B^G | [EA]2 [B,E]>E | z/ C/F/E/ ^D/^F/E/=D/ | D/C/B,/A,/ A,/^G,/A,/B,/ | %5
 E>[EG] [EG][DF] | E>E [A,^F]/[B,^G]/[CA]/[DGB]/ | z/ C/F/E/ D/_D/C/_B,/ | z/ A,/A/>G/ G/F/E/D/ | %9
 C/E/A/C/ B/D/E/D/ | x4 | x4 | E/C/F/E/ ^D/^F/E/=D/ | E2 x2 | z/ C/F/E/ ^D/^F/E/=D/ | %15
 D/C/B,/A,/ B,/^G,/A,/B,/ | C/B,/C/[B,D]/ C/E/B,/A,/ | E>E [A,^F]/[B,^G]/[CA]/[DGB]/ | %18
 [Ac]2 D/_D/C/_B,/ | x2 G/F/E/D/ | C/E/A/C/ B/D/E/D/ | x4 | x7/2 E/- | E/C/F/E/ ^D/^F/^E/=D/ | %24
 D/C/B,/A,/ x2 || x4 | x4 | x4 | x4 | x3/2 E/ x2 | z2 x2/3 (3D/ x15/32 D/ x23/48 | B2 cA | %32
 G2 z3/2 [G,G]/ | [EG]2 [FA]2 | ([FGd]2 G)F/G/ | [EG]2 [FA]2 | [Fd]3 z/ G/ | x E/ x5/2 | x4 | x4 | %40
 z2 z x2/3 (3:2:1[GA]/ | z z [Ec]([DB] | G/)E/A/G/ ^F/A/G/=F/ | F/E/D/C/ B,/F/E/D/ | %44
 B,/C/ x E/G/D/F/ | x4 |] %46
V:7
 x/ | x4 | x2 E,2 | x4 | x2 E,,^F,,/^G,,/ | x4 | x2 E,/E,/C,/B,,/ | x4 | x4 | x4 | x4 | x4 | x4 | %13
 x2 E,,^F,,/^G,,/ | x4 | x2 E,,^F,,/^G,,/ | x4 | E,>E, ^D,/=D,/C,/B,,/ | x4 | x4 | x4 | x4 | x4 | %23
 x4 | x4 || x4 | x4 | x4 | x4 | (3B,,,/G,,/D,/ (3G,/C/C,/ C_E | x33/8 | x4 | x4 | x4 | x4 | x4 | %36
 x4 | x4 | B,,2- !fermata!B,, x | x4 | x4 | x4 | x4 | x4 | x4 | C,2 x2 |] %46

